!!!!SEGMENT: pl-kk--kk-i-28--004_anonim--missa-de-adventu-domini-agnus-dei.krn
!!!cenid: 17xx:2226
!!!COM: Anonim
!!!COM-rismid: pe30004985
!!!CDT:
!!!CNT:
!!!OTL: Missa De Adventu Domini – Agnus Dei
!!!PDT:
!!!AGN: Sacred; Mass
!!!SMS-siglum: PL-Kk
!!!SMS-shelfmark: Kk.I.28
!!!SMS-shelfwork: 001-004 M
!!!SMS-variant: Bassus: pl-kk--i-28--0018
!!!SMS-altvar: Bassus: pl-kk--i-28--0022
!!!NIFC-rismid: 1001156098
!!!URL-scan: http://repozytorium.nifc.pl/skany/pl-kk-nut--i-28
!!!ONB-nifc: UWAGA: części Mszy: 1. Kyrie, 2. Et in terra, 3. Sanctus, 4. Agnus Dei.
**kern	**text	**text	**kern	**text	**text	**kern	**text	**text	**kern	**text	**text
*part4	*part4	*part4	*part3	*part3	*part3	*part2	*part2	*part2	*part1	*part1	*part1
*staff4	*staff4	*staff4	*staff3	*staff3	*staff3	*staff2	*staff2	*staff2	*staff1	*staff1	*staff1
*I"Baſso.	*	*	*I"Tenore	*	*	*I"Alto.	*	*	*I"Canto.	*	*
*I'B	*	*	*I'T	*	*	*I'A	*	*	*I'C	*	*
*clefF4	*	*	*clefC4	*	*	*clefC3	*	*	*clefC1	*	*
*ok[b-b-]	*	*	*	*	*	*	*	*	*	*	*
*k[b-]	*	*	*k[b-]	*	*	*k[b-]	*	*	*k[b-]	*	*
*F:	*	*	*F:	*	*	*F:	*	*	*F:	*	*
*M3/2	*	*	*M3/2	*	*	*M3/2	*	*	*M3/2	*	*
=1	=1	=1	=1	=1	=1	=1	=1	=1	=1	=1	=1
1F	A-	.	1F	A-	.	0.r	.	.	00.r	.	.
*2\right	*	*	*2\right	*	*	*	*	*	*	*	*
2F\	-gnus	.	2c\	-gn(us)	.	.	.	.	.	.	.
=2	=2	=2	=2	=2	=2	=2	=2	=2	=2	=2	=2
*	*ij	*	*	*	*	*	*	*	*	*	*
1BB-	A-	.	2.d\	A-	.	.	.	.	.	.	.
.	.	.	8c\L	.	.	.	.	.	.	.	.
.	.	.	8B-\J	.	.	.	.	.	.	.	.
2F\	-gnus	.	4c\	.	.	.	.	.	.	.	.
*	*Xij	*	*	*	*	*	*	*	*	*	*
.	.	.	4A\	.	.	.	.	.	.	.	.
=3	=3	=3	=3	=3	=3	=3	=3	=3	=3	=3	=3
2.G\	A-	.	2.B-\	.	.	1B-	A-	.	.	.	.
8F\L	.	.	4c\	.	.	.	.	.	.	.	.
8E\J	.	.	.	.	.	.	.	.	.	.	.
*	*	*	*	*	*	*2\right	*	*	*	*	*
4F\	.	.	4A\	.	.	2f\	-gnus	.	.	.	.
4D\	.	.	4B-\	.	.	.	.	.	.	.	.
=4	=4	=4	=4	=4	=4	=4	=4	=4	=4	=4	=4
4C/	.	.	2G/	.	.	2.g\	a-	.	.	.	.
4D/	.	.	.	.	.	.	.	.	.	.	.
4E\	.	.	2c\	.	.	.	.	.	.	.	.
4C/	.	.	.	.	.	8f\L	.	.	.	.	.
.	.	.	.	.	.	8e\J	.	.	.	.	.
4D/	.	.	2B-\	.	.	4f\	.	.	.	.	.
4E\	.	.	.	.	.	4d\	.	.	.	.	.
=5	=5	=5	=5	=5	=5	=5	=5	=5	=5	=5	=5
1F	.	.	1A	.	.	2.c\	.	.	1f	A-	.
.	.	.	.	.	.	4d\	.	.	.	.	.
*	*	*	*	*	*	*	*	*	*2\right	*	*
2E\	.	.	2G/	-gn(us)	.	(4e\	-gn(us)	.	2cc\	-gnus	.
.	.	.	.	.	.	4c\)	.	.	.	.	.
=6	=6	=6	=6	=6	=6	=6	=6	=6	=6	=6	=6
2D/	.	.	1F	De-	.	2d\	De-	.	2.dd\	A-	.
!	!	!	!	!	!	!LO:TX:t=P:problem:oddech/cezura na różnej wysokości:global	!	!	!	!	!
2BB-/	.	.	.	.	.	2f,<\	-i	.	.	.	.
.	.	.	.	.	.	.	.	.	8cc\L	.	.
.	.	.	.	.	.	.	.	.	8b-\J	.	.
2F\	-gn(us)	.	2A/	.	.	2c\	qui	.	4cc\	.	.
.	.	.	.	.	.	.	.	.	4a\	.	.
=7	=7	=7	=7	=7	=7	=7	=7	=7	=7	=7	=7
!	!	!	!LO:TX:t=P:problem:oddech/cezura na różnej wysokości:global	!	!	!	!	!	!	!	!
1G	De-	.	1.G,<	-i	.	4g\	tol-	.	4b-\	.	.
.	.	.	.	.	.	4a\	.	.	4cc\	.	.
.	.	.	.	.	.	4g\	.	.	4b-\	.	.
.	.	.	.	.	.	4f\	.	.	4a\	.	.
2C/	-i	.	.	.	.	4e\	.	.	2g\	-gnus	.
.	.	.	.	.	.	4d\	.	.	.	.	.
=8	=8	=8	=8	=8	=8	=8	=8	=8	=8	=8	=8
!LO:TX:t=P:problem:oddech/cezura na różnej wysokości:global	!	!	!	!	!	!	!	!	!	!	!
2FF,</	.	.	1F	A-	.	2c\	.	.	1a	De-	.
2F\	a-	.	.	.	.	2c,<\	-lis	.	.	.	.
2C/	-gn(us)	.	2c\	-gn(us)	.	2e\	pec-	.	2g/	-i	.
=9	=9	=9	=9	=9	=9	=9	=9	=9	=9	=9	=9
2F\	De-	.	2.d\	A-	.	2.f\	-ca-	.	1.r	.	.
2G\	.	.	.	.	.	.	.	.	.	.	.
.	.	.	8c\L	.	.	8e\L	.	.	.	.	.
.	.	.	8B-\J	.	.	8d\J	.	.	.	.	.
2C/	.	.	4c\	.	.	4e\	.	.	.	.	.
.	.	.	4G/	.	.	4c\	.	.	.	.	.
=10	=10	=10	=10	=10	=10	=10	=10	=10	=10-	=10	=10
*	*	*	*	*	*	*	*	*	*	*ij	*
2FF,</	-i	.	2.F/	.	.	(2.d\	-ta	.	1f	A-	.
2BB-/	Qui	.	.	.	.	.	.	.	.	.	.
.	.	.	4G/	.	.	4e\)	.	.	.	.	.
!	!	!	!LO:SIC:v:t=custos D	!	!	!	!	!	!	!	!
2AA/	.	.	2A/	.	.	2f\	mun-	.	2cc\	-gnus	.
!	!	!	!LO:LB:g=original	!	!	!	!	!	!	!	!
=11	=11	=11	=11	=11	=11	=11	=11	=11	=11	=11	=11
4BB-/	tol-	.	2D/	-gnus	.	2f,<\	-di.	.	2dd\	De-	.
4C/	.	.	.	.	.	.	.	.	.	.	.
!	!	!	!	!	!	!	!	!	!LO:TX:t=P:problem:oddech/cezura na różnej wysokości:global	!	!
4D/	.	.	2d\	.	.	2f\	A-	.	2dd,<\	-i	.
*	*	*	*	*	*	*	*	*	*	*Xij	*
4E/	.	.	.	.	.	.	.	.	.	.	.
2F\	-lis	.	2cn\	De-	.	2f\	-gn(us)	.	2cc\	Qui	.
!LO:LB:g=original	!	!	!	!	!	!	!	!	!	!	!
=12	=12	=12	=12-	=12	=12	=12	=12	=12	=12	=12	=12
4D\	pec-	.	1.d	-i	.	2a\	De-	.	2ff\	tol-	.
4E\	.	.	.	.	.	.	.	.	.	.	.
4F\	.	.	.	.	.	2a,<\	-i	.	2ff\	-lis	.
4G\	.	.	.	.	.	.	.	.	.	.	.
2A\	.	.	.	.	.	2a\	Qui	.	2ee\	pec-	.
!	!	!	!	!	!	!LO:PB:g=original	!	!	!	!	!
=13	=13	=13	=13	=13	=13	=13	=13	=13	=13	=13	=13
2.B-\	-ca-	.	2f\	qui	.	1f	tol-	.	2.dd\	-ca-	.
.	.	.	2d\	tol-	.	.	.	.	.	.	.
4A\	.	.	.	.	.	.	.	.	4cc\	.	.
2G\	-ta	.	2d\	-lis	.	2g\	-lis	.	(4bn\	-ta	.
.	.	.	.	.	.	.	.	.	4g,<\)	.	.
=14	=14	=14	=14	=14	=14	=14	=14	=14	=14	=14	=14
(2E\	mun-	.	2c\	.	.	2g\	pec-	.	1cc	mun-	.
2F\)	.	.	2C/	pec-	.	2a\	-ca-	.	.	.	.
2G\	.	.	2G/	-ca-	.	2g\	-ta	.	2bn\	.	.
=15	=15	=15	=15	=15	=15	=15	=15	=15	=15	=15	=15
1.C,<	-di,	.	2.G/	.	.	1.e	mun-	.	1.cc	-di	.
.	.	.	8F/L	.	.	.	.	.	.	.	.
.	.	.	8E/J	.	.	.	.	.	.	.	.
.	.	.	4G/	.	.	.	.	.	.	.	.
.	.	.	4E/	.	.	.	.	.	.	.	.
!	!	!	!	!	!	!	!	!	!LO:LB:g=original	!	!
=16	=16	=16	=16	=16	=16	=16-	=16	=16	=16	=16	=16
1F	mi-	Do-	4F/	-ta	.	1.f	-di	.	1a	mi-	Do-
.	.	.	4G/	.	.	.	.	.	.	.	.
.	.	.	4A/	.	.	.	.	.	.	.	.
.	.	.	4F/	.	.	.	.	.	.	.	.
2C/	-ſe-	-na	2E/	.	.	.	.	.	2a\	-ſe-	-na
=17	=17	=17	=17	=17	=17	=17	=17	=17	=17	=17	=17
!	!	!	!	!	!	!LO:TX:a:t=1.	!	!	!	!	!
2.D/	-re-	no-	2D/	mun-	.	1.r	.	.	1f	-re-	no-
.	.	.	2D/	-di	.	.	.	.	.	.	.
8C/L	.	.	.	.	.	.	.	.	.	.	.
8BB-/J	.	.	.	.	.	.	.	.	.	.	.
4C/	.	.	2r	.	.	.	.	.	2cc\	-re	-bis
4AA/	.	.	.	.	.	.	.	.	.	.	.
=18	=18	=18	=18	=18	=18	=18-	=18	=18	=18	=18	=18
2.BB-/	.	.	1.r	.	.	1B-	mi-	Do-	2.dd\	no-	pa-
4GG/	.	.	.	.	.	.	.	.	8cc\L	.	.
.	.	.	.	.	.	.	.	.	8b-\J	.	.
4AA/	.	.	.	.	.	2f\	-ſe-	-na	4cc\	.	.
4FF/	.	.	.	.	.	.	.	.	4a\	.	.
=19	=19	=19	=19-	=19	=19	=19	=19	=19	=19	=19	=19
2GG,</	-re	-bis	2r	.	.	2.g\	-re-	no-	2.b-\	.	.
(4G\	mi-	do-	2B-\	mi-	.	.	.	.	.	.	.
4A\)	.	.	.	.	.	8f\L	.	.	4cc\	.	.
.	.	.	.	.	.	8e\J	.	.	.	.	.
(4F\	-ſe-	-na	2F/	-ſe-	Do-	4f\	.	.	4a\	.	.
4G\)	.	.	.	.	.	4d\	.	.	4b-\	.	.
=20	=20	=20	=20	=20	=20	=20	=20	=20	=20	=20	=20
!	!	!	!	!	!	!LO:TX:a:t=P:problem:♮ above	!	!	!	!	!
2.C/	-re-	no-	2.c\	-re-	-na	2.en\	.	.	2.g/	.	.
4A\	.	.	8B-\L	.	.	4f\	.	.	4a/	.	.
.	.	.	8A\J	.	.	.	.	.	.	.	.
4B-\	.	.	4B-\	.	no-	(4d\	-re	-bis	4f/	.	.
4G\	.	.	4G\	-re	.	4e\)	.	.	4g/	.	.
=21	=21	=21	=21	=21	=21	=21	=21	=21	=21	=21	=21
2F,<\	-re	-bis	2c\	no-	.	1f	.	.	2a\	.	.
(2B-\	no-	pa-	2d\	.	.	.	.	.	1g	.	.
2c\)	.	.	2c\	.	.	2e\	no-	pa-	.	.	.
!	!	!	!LO:LB:g=original	!	!	!	!	!	!	!	!
=22	=22	=22	=22	=22	=22	=22	=22	=22	=22	=22	=22
2F,<\	-bis	-cem	2c,<\	-bis	-bis	2f,<\	-bis	-cem	2a,<\	-bis	-cem
*	*	*ij	*	*	*	*	*	*	*	*	*
2F\	mi-	do-	2A\	mi-	Do-	2f\	mi-	Do-	2cc\	mi-	do-
2F\	-ſe-	-na	2A\	-ſe-	-na	2c/	-ſe-	-na	2cc\	-ſe-	-na
=23	=23	=23	=23	=23	=23	=23	=23	=23	=23	=23	=23
1F	-re-	no-	1B-	-re-	no-	1f	-re-	no-	1dd	-re-	no-
2F\	-re	-bis	2A\	-re	-bis	2c/	-re	-bis	2cc\	-re	-bis
=24-	=24	=24	=24	=24	=24	=24-	=24	=24	=24	=24	=24
1.F	no-	pa-	1.B-	no-	pa-	1.f	no-	pa-	1.dd	no-	pa-
=25-	=25	=25	=25-	=25	=25	=25-	=25	=25	=25	=25	=25
!LO:N:vis=0	!	!	!LO:N:vis=0	!	!	!LO:N:vis=0	!	!	!LO:N:vis=0.	!	!
1.F;>	-bis	-cem	1.A;>	-bis.	-cem.	1.c;	-bis.	-cem	1.cc	-bis.	-cem
*	*	*Xij	*	*	*	*	*	*	*	*	*
!LO:LB:g=original	!	!	!	!	!	!	!	!	!LO:LB:g=original	!	!
=26||	=26||	=26||	=26||	=26||	=26||	=26||	=26||	=26||	=26||	=26||	=26||
*M2/2	*	*	*M2/2	*	*	*M2/2	*	*	*M2/2	*	*
*met(c|)	*	*	*met(c|)	*	*	*met(c|)	*	*	*met(c|)	*	*
1F	A-	.	1.f	A-	.	2.a\	A-	.	2.cc\	A-	.
.	.	.	.	.	.	4g\	.	.	4b-\	.	.
=27	=27	=27	=27-	=27	=27	=27	=27	=27	=27	=27	=27
2A\	.	.	.	.	.	2f\	.	.	4a/	-gnus	.
.	.	.	.	.	.	.	.	.	4f/	.	.
!	!	!	!	!	!	!LO:SIC:v:t=custos g	!	!	!	!	!
2c\	-gn(us)	.	2e\	-gn(us)	.	2g\	-gnus	.	1cc\	De-	.
!	!	!	!	!	!	!LO:LB:g=original	!	!	!	!	!
=28	=28	=28	=28	=28	=28	=28	=28	=28	=28-	=28	=28
1G	De-	.	1d	De-	.	2.g\	De-	.	.	.	.
.	.	.	.	.	.	.	.	.	2bn\	.	.
.	.	.	.	.	.	4f\	.	.	.	.	.
=29-	=29	=29	=29	=29	=29	=29-	=29	=29	=29	=29	=29
2C,</	-i	.	2e\	-i	.	2e\	.	.	1cc	-i	.
2F\	Qui	.	2c\	qui	.	2f\	.	.	.	.	.
=30	=30	=30	=30	=30	=30	=30	=30	=30	=30	=30	=30
4BB-/	tol-	.	4d\	tol-	.	1f	-i	.	2r	.	.
4C/	.	.	4e\	.	.	.	.	.	.	.	.
4D/	.	.	1f\	.	.	.	.	.	2dd\	Qui	.
4BB-/	.	.	.	.	.	.	.	.	.	.	.
=31	=31	=31	=31-	=31	=31	=31	=31	=31	=31	=31	=31
2D,<\	-lis	.	.	.	.	2r	.	.	4cc\	tol-	.
.	.	.	.	.	.	.	.	.	4b-\	.	.
2E\	pec-	.	2e\	.	.	2g\	qui	.	4a\	.	.
.	.	.	.	.	.	.	.	.	4g/	.	.
=32	=32	=32	=32	=32	=32	=32-	=32	=32	=32	=32	=32
2F\	-ca-	.	1d	-lis	.	1f	tol-	.	2a\	.	.
2G\	-ta	.	.	.	.	.	.	.	2b-\	.	.
=33	=33	=33	=33	=33	=33	=33	=33	=33	=33	=33	=33
2.A\	.	.	2c\	.	.	2e\	-lis	.	1.cc	-lis	.
.	.	.	2A\	pec-	.	2e\	pec-	.	.	.	.
4G\	pec-	.	.	.	.	.	.	.	.	.	.
=34	=34	=34	=34	=34	=34	=34	=34	=34	=34-	=34	=34
2F\	-ca-	.	2c\	-ca-	.	2f\	-ca-	.	.	.	.
!	!	!	!LO:SIC:v:t=custos d	!	!	!	!	!	!	!	!
2E\	.	.	2c\	-ta	.	2g\	.	.	2g\	pec-	.
!	!	!	!LO:LB:g=original	!	!	!	!	!	!	!	!
=35	=35	=35	=35	=35	=35	=35	=35	=35	=35	=35	=35
2F\	-ta	.	1d	mun-	.	2f\	-ta	.	2a\	-ca-	.
2G\	mun-	.	.	.	.	2d\	mun-	.	2bn\	-ta	.
=36	=36	=36	=36-	=36	=36	=36	=36	=36	=36	=36	=36
1C	-di	.	1en	.	.	4e\	.	.	2.cc\	mun-	.
.	.	.	.	.	.	4f\	.	.	.	.	.
.	.	.	.	.	.	4g\	.	.	.	.	.
.	.	.	.	.	.	4e\	.	.	4b-\	.	.
=37	=37	=37	=37	=37	=37	=37	=37	=37	=37	=37	=37
2F\	mi-	.	2d\	.	.	2f\	.	.	2.a\	.	.
2G\	-ſe-	.	2Bn\	.	.	2d\	-di	.	.	.	.
.	.	.	.	.	.	.	.	.	4g/	.	.
=38	=38	=38	=38-	=38	=38	=38	=38	=38	=38	=38	=38
2C/	-re-	.	2c,<\	-di	.	2e,<\	.	.	1g	-di	.
2AA/	-re	.	1f\	mi-	.	1c\	mi-	.	.	.	.
=39	=39	=39	=39-	=39	=39	=39-	=39	=39	=39	=39	=39
2F\	no-	.	.	.	.	.	.	.	2r	.	.
2D\	.	.	2f\	-ſe-	.	2d/	-ſe-	.	2b-\	Qui	.
=40	=40	=40	=40	=40	=40	=40	=40	=40	=40-	=40	=40
2E-X\	.	.	2c\	-re-	.	2G/	-re-	.	2g/	tol-	.
2F\	.	.	1A\	.	.	1c\	.	.	4a\	.	.
.	.	.	.	.	.	.	.	.	4b-\	.	.
=41	=41	=41	=41	=41	=41	=41-	=41	=41	=41	=41	=41
4F\	.	.	.	.	.	.	.	.	2cc,<\	-lis	.
4E\	.	.	.	.	.	.	.	.	.	.	.
!	!	!	!	!	!	!	!	!	!LO:SIC:v:t=custos dd	!	!
4D/	.	.	2F/	.	.	4f\	.	.	2cc\	pec-	.
4C/	.	.	.	.	.	4e\	.	.	.	.	.
!LO:LB:g=original	!	!	!	!	!	!	!	!	!LO:PB:g=original	!	!
=42	=42	=42	=42	=42	=42	=42	=42	=42	=42	=42	=42
2.BB-/	.	.	1.B-	-re	.	4d\	.	.	2.dd\	-ca-	.
.	.	.	.	.	.	4e\	.	.	.	.	.
.	.	.	.	.	.	1f\	.	.	.	.	.
4C/	.	.	.	.	.	.	.	.	4cc\	-ta	.
=43	=43	=43	=43-	=43	=43	=43-	=43	=43	=43	=43	=43
!	!	!	!	!	!	!	!	!	!LO:TX:a:t=P:problem:♭ above	!	!
4D\	.	.	.	.	.	.	.	.	2b-X\	mun-	.
4E\	.	.	.	.	.	.	.	.	.	.	.
2F\	-bis	.	2A/	.	.	2c\	-re	.	2f/	-di	.
=44	=44	=44	=44	=44	=44	=44	=44	=44	=44	=44	=44
2.C/	mi-	.	1G	no-	.	2.e\	no-	.	2r	.	.
.	.	.	.	.	.	.	.	.	2.cc\	mi-	.
4BB-/	-ſe-	.	.	.	.	4d\	.	.	.	.	.
=45	=45	=45	=45-	=45	=45	=45	=45	=45	=45-	=45	=45
2AA/	-re-	.	1A	.	.	2c\	.	.	.	.	.
.	.	.	.	.	.	.	.	.	4b-\	.	.
2FF/	-re	.	.	.	.	2f\	.	.	2a\	-se-	.
=46	=46	=46	=46	=46	=46	=46-	=46	=46	=46	=46	=46
1BB-	no-	.	0G	.	.	4d\	.	.	4b-\	-re-	.
.	.	.	.	.	.	4e\	.	.	4cc\	.	.
.	.	.	.	.	.	1f\	.	.	2dd\	.	.
=47	=47	=47	=47	=47	=47	=47	=47	=47	=47-	=47	=47
1C	.	.	.	.	.	.	.	.	1cc	.	.
.	.	.	.	.	.	2e\	.	.	.	.	.
!	!	!	!	!	!	!LO:LB:g=original	!	!	!	!	!
=48	=48	=48	=48	=48	=48	=48	=48	=48	=48	=48	=48
4FF,</	-bis.	.	0F	-bis	.	1f	-bis	.	4a\	-re	.
2F\	mi-	.	.	.	.	.	.	.	2a\	no-	.
4E\	-ſe-	.	.	.	.	.	.	.	4g/	.	.
=49	=49	=49	=49	=49	=49	=49	=49	=49	=49	=49	=49
2.D/	-re-	.	.	.	.	4r	.	.	2f/	-bis	.
.	.	.	.	.	.	2f\	mi-	.	.	.	.
.	.	.	.	.	.	.	.	.	2d/	.	.
4C/	.	.	.	.	.	4e\	-ſe-	.	.	.	.
=50	=50	=50	=50	=50	=50	=50	=50	=50	=50	=50	=50
4BB-/	.	.	4r	.	.	2d\	-re-	.	4r	.	.
4C/	.	.	2d\	mi-	.	.	.	.	2ff\	mi-	.
4D/	.	.	.	.	.	2A/	.	.	.	.	.
4E/	.	.	4d\	-ſe-	.	.	.	.	4ff\	-ſe-	.
=51-	=51	=51	=51	=51	=51	=51	=51	=51	=51	=51	=51
2F\	-re	.	2A\	-re-	.	2F/	.	.	2cc\	-re-	.
2BB-/	.	.	2B-\	-re	.	2f\	-re	.	2dd\	-re	.
!	!	!	!LO:LB:g=original	!	!	!	!	!	!	!	!
=52	=52	=52	=52	=52	=52	=52	=52	=52	=52	=52	=52
*	*ij	*	*	*	*	*	*	*	*	*	*
2AA/	mi-	.	4c\	no-	.	2.f\	no-	.	4r	.	.
*	*	*	*	*	*	*	*	*	*	*ij	*
.	.	.	4B-\	.	.	.	.	.	2cc\	mi-	.
2AA/	-ſe-	.	4A/	.	.	.	.	.	.	.	.
.	.	.	4G/	.	.	4e-X\	.	.	4cc\	-ſe-	.
=53	=53	=53	=53	=53	=53	=53	=53	=53	=53	=53	=53
2BB-/	-re-	.	4F/	.	.	2d\	.	.	2b-\	-re-	.
.	.	.	4G/	.	.	.	.	.	.	.	.
!	!	!	!	!	!	!	!	!	!LO:SIC:v:t=custos ee	!	!
2FF,</	-re	.	2A\	.	.	2f\	.	.	2cc\	-re	.
*	*Xij	*	*	*	*	*	*	*	*	*Xij	*
!	!	!	!	!	!	!	!	!	!LO:LB:g=original	!	!
=54	=54	=54	=54	=54	=54	=54	=54	=54	=54	=54	=54
0BB-	no-	.	1B-	-bis	.	4f\	.	.	4dd\	mi-	.
.	.	.	.	.	.	4g\	.	.	4ee\	.	.
.	.	.	.	.	.	2a\	.	.	4ff\	-ſe-	.
.	.	.	.	.	.	.	.	.	4ee\	-re-	.
=55-	=55	=55	=55	=55	=55	=55	=55	=55	=55	=55	=55
.	.	.	2.B-\	mi-	.	2b-\	.	.	2dd\	.	.
.	.	.	.	.	.	4a\	.	.	4cc\	.	.
.	.	.	4B-\	-ſe-	.	4g\	.	.	4b-\	-re	.
=56	=56	=56	=56	=56	=56	=56	=56	=56	=56	=56	=56
0F	.	.	2c\	-re-	.	0f	.	.	2a\	no-	.
.	.	.	2d\	-re	.	.	.	.	1b-\	.	.
=57-	=57	=57	=57	=57	=57	=57-	=57	=57	=57-	=57	=57
.	.	.	2.d\	no-	.	.	.	.	.	.	.
.	.	.	.	.	.	.	.	.	4a\	.	.
.	.	.	8c\L	.	.	.	.	.	4g\	.	.
.	.	.	8B-\J	.	.	.	.	.	.	.	.
=58	=58	=58	=58-	=58	=58	=58-	=58	=58	=58-	=58	=58
!LO:TX:b:i:t=3/2 Agnus 3tium Ut 1mum	!	!	!LO:TX:b:i:t=3/2 Agnus 3tium sicut\n1mum	!	!	!LO:TX:b:i:t=3/2 Agnus 3tium \nut 1mum	!	!	!LO:TX:b:i:t=3/2 Agnus 3tium ut 1mum	!	!
!LO:N:vis=0	!	!	!LO:N:vis=0	!	!	!LO:N:vis=0	!	!	!LO:N:vis=0	!	!
1FF;>	-bis.	.	1c;>	-bis.	.	1f;<	-bis.	.	1a;	-bis.	.
==	==	==	==	==	==	==	==	==	==	==	==
*-	*-	*-	*-	*-	*-	*-	*-	*-	*-	*-	*-
!!!system-decoration: [(s1,s2,s3,s4)]
!!!RDF**kern: < = below
!!!RDF**kern: > = above
!!!ENC: Marta Chmielewska
!!!END: 2021-08-05
!!!ENC: Mateusz Solarz
!!!END: 2021-07-02
